X: 75
T: High Road to Linton
R: Reel
N: page 25
N: heptatonic
M: 4/4
L: 1/8
K: Amix
|: "A"ceef a2ae | "G"f2fe "D"a2ae | "A"cefe a2ae | "D"faec "E"B2"A"A2 :|
|: "A"ceeg "D"fddf | "A"ecce "E"fBB2 |"A"ceeg "D"fddf |"A"ecac "G"B2"A"A2 :|
|: "A"a2a2 efa2 | efae faef | a2a2 efae | "D"faec "E"B2"A"A2 :|
|: "A"c2ec "D"defd | "A"c2ec "G"BcdB | "A"c2ec "D"def^g | "A"afec "G"B2"A"A2 :|
